X:1
T:Mon seul espoir
T:Mon seul espoir
T:Pierre de Machchicourt
C:Pierre de Machchicourt
%%score [ 1 [ 2 3 ] 4 ]
L:1/8
Q:1/4=97
M:2/2
K:F
V:1 treble nm="Superius" snm="S"
V:2 treble-8 nm="Tenor 1" snm="T 1"
V:3 treble-8 nm="Tenor 2" snm="T 2"
V:4 bass nm="Bassus" snm="B"
V:1
 F8 | G4 B4 | A4 z2 G2 | A2 c2 B2 A2 | G2 B2 A2 G2- | GF F2 G2 A2 | GF F4 E2 | F4 z4 | %8
w: Mon|seul es-|poir, le|plai- sir de ma|vi- * * *|||e,|
 z2 A2 A2 G2 | A2 F2 c2 c2 | c2 A2 B4 | A4 A4- | A4 G2 G2 | F2 E2 F4- | F2 F2 E2 D2 | F2 G3 E A2- | %16
w: à quy tous-|jours jay de- com-|plai- r'en- nuy-|é, ren-|* du m'a-|vez au cueur|_ tout- te li-|es- * * *|
 A2 G2 A2 A2 | B2 G2 A2 A2 | A2 G2 A2 A2 | B3 A G2 F2 | E2 F4 E2 | D4 C4- | C4 z2 A2 |: c4 z2 G2 | %24
w: * * se, je|suis heu- reulx, je|suis heu- reulx d'a-|voir tel- le mais-|tres- * *|* se,|_ a-|mour, a-|
 A4 z2 G2 | c3 B A2 G2 | A2 c2 B2 A2- | AG F4 E2 | F4 z2 A2 :| F8 |] %30
w: mour, mil-|le fois te mer-||* * chi- *|e, a-|e.|
V:2
 d8 | e4 f4- | f4 d4 | z2 c2 d2 f2 | e2 d2 c2 e2 | d2 c4 d2- | d2 B2 c4- | c8 | z2 f2 f2 e2 | %9
w: Mon|seul es-|* poir,|le plai- sir|de ma vi- *||* * e,|_|à quy tous-|
 f2 c2 c2 f2 | e2 f2 d3 e | f4 f4- | f4 e2 d2 | d2 c2 d4- | d2 c2 c2 A2 | d2 e2 d4- | d4 z2 f2 | %17
w: jours jay de com-|plai- r'en- nuy- *|é, ren-|* du m'a-|vez au cueur|_ tout- te li-|es- * se,|_ je|
 f2 d2 e2 f2 | f2 e2 f4- | f2 f2 d2 d2 | c6 c2 | A2 B2 G4 | A2 A2 c4 |: z2 e2 e3 d | c2 f4 ed | %25
w: suis heu- reulx, je|suis heu- reulx|_ d'a- voir tel-|le mais-|tres- * *|se, a- mour,|a- mour, _|_ mil- le _|
 e4 c4 | f2 e2 d2 c2 | d4 c4 | A2 A2 c4 :| A8 |] %30
w: fois mer-||* chi|e, a- mour,|e.|
V:3
 A8 | c4 d4- | d2 c4 B2 | c4 z4 | z2 G2 A2 c2 | B2 A2 G2 F2 | BA GF G4 | F2 A2 A2 G2 | %8
w: Mon|seul es-||poir,|le plai- sir|de ma vi- *||e, à quy tous-|
 A2 F2 c2 c2 | cB AG FE FG | AB c2 BA Bc | d4 c4- | c4 c2 B2 | A2 G2 B2 B2 | A3 A G2 FG | %15
w: jours jay de com-|plain- * * * * * * *|* * r'en- nuy- * * *|é, ren-|* du m'a-|vez au cueur tout-|te li- es- * *|
 AF c2 B2 A2 | B4 A2 c2 | d2 B2 A2 c2 | d2 B2 c2 c2 | d3 c B2 A2 | G2 A3 G G2- | GF F4 E2 | %22
w: |* se, je|suis heu- reulx, je|suis heu- reulx d'a-|voir tel- le mais-|tres- * * *||
 F2 F2 A4 |: z2 A2 c4 | z2 A2 c3 B | A2 G2 (3A2 B2 c2 | F2 G2 F3 G | A2 B2 G4 | F2 F2 A4 :| F8 |] %30
w: se, a- mour,|a- mour,|mil- le fois|te mer- * * *||* * chi-|e, a- mour,|e.|
V:4
 D,8 | C,4 B,,4 | F,2 F,2 G,2 B,2 | A,3 A, G,2 F,2 | G,4 z2 C,2 | D,2 F,2 E,2 D,2 | B,,2 D,2 C,4 | %7
w: Mon|seul es-|poir, le plai- sir|de ma vi- *|e, le|plai- sir de ma|vi- * e,|
 z2 F,2 F,2 E,2 | F,2 D,2 C,2 C,2 | F,3 G, A,4- | A,2 F,2 G,4 | D,4 F,4- | F,4 C,2 G,2 | %13
w: à quy tous-|jours jay de com-|plain- * *|* t'en- nuy-|é, ren-|* du m'a-|
 D,2 E,2 B,,A,, B,,C, | D,2 F,2 C,2 D,2- | D,2 C,2 G,2 F,2 | G,4 F,4 | z4 z2 F,2 | %18
w: vez au cueur _ _ _|_ tout- te li-|* * es- *|* se,|je|
 D,2 G,2 F,2 F,2 | B,,6 B,,2 | C,2 F,,2 C,4 | D,2 B,,2 C,4 | F,,4 z2 F,,2 |: A,,4 z2 C,2 | %24
w: suis heu- reulx d'a-|voir tel-|le mais- tres-||se, a-|mour, a-|
 F,4 z2 C,2 | C,2 C,2 F,2 E,2 | D,2 C,2 D,2 F,2- | F,2 B,,2 C,4 | F,,4 z2 F,,2 :| F,,8 |] %30
w: mour, mil-|le fois mer- *||* * chi-|e, a-|e.|

